X:647
T:Felix the wrestler
R:Jig
O:Ireland
B:Krassen O'Neill's p61
B:O'Neill's 1049
S:O'Neill's 1049
Z:Transcription, chords:Mike Long
M:6/8
L:1/8
K:A
e|\
"A"c2A AcA|ecA AB=c|"G"B2=G GBG|dB=G Bcd|\
"A"c2A AcA|ecA ABc|"D"ded "E"Bcd|"A"ecA A2:|
d|\
"A"c2a aga|efe edc|"G"B2=g gfg|"(D)"ded dcB|\
"A"c2a aga|efe edc|"D"ded "E"Bcd|"A"ecA A2||
d|\
"A"c2a aga|efe edc|"G"B2=g gfg|"(D)"ded dcB|\
"A"cBA "E"dcB|"A"edc "D"fed|"A"cBA "E"Bcd|"A"ecA A2|]
